humanity-icon-theme/Humanity/places/48/folder-system.svg

<?xml version="1.0" encoding="UTF-8" standalone="no"?>
<!-- Created with Inkscape (http://www.inkscape.org/) -->
<svg
   xmlns:svg="http://www.w3.org/2000/svg"
   xmlns="http://www.w3.org/2000/svg"
   xmlns:xlink="http://www.w3.org/1999/xlink"
   version="1.0"
   width="48"
   height="48"
   id="svg3396">
  <defs
     id="defs3398">
    <linearGradient
       id="linearGradient3397">
      <stop
         id="stop3399"
         style="stop-color:#a0a0a0;stop-opacity:1"
         offset="0" />
      <stop
         id="stop3401"
         style="stop-color:#787878;stop-opacity:1"
         offset="1" />
    </linearGradient>
    <linearGradient
       x1="25.922546"
       y1="19"
       x2="25.922546"
       y2="47.044857"
       id="linearGradient3415"
       xlink:href="#linearGradient3397"
       gradientUnits="userSpaceOnUse" />
    <linearGradient
       x1="63.9995"
       y1="3.1001"
       x2="63.9995"
       y2="122.8994"
       id="linearGradient3309"
       gradientUnits="userSpaceOnUse">
      <stop
         id="stop3311"
         style="stop-color:#f6f6f6;stop-opacity:1"
         offset="0" />
      <stop
         id="stop3313"
         style="stop-color:#d2d2d2;stop-opacity:1"
         offset="1" />
    </linearGradient>
    <linearGradient
       x1="32.036148"
       y1="19"
       x2="32.036148"
       y2="47.012184"
       id="linearGradient3413"
       xlink:href="#linearGradient3309"
       gradientUnits="userSpaceOnUse" />
    <linearGradient
       id="linearGradient5128">
      <stop
         id="stop5130"
         style="stop-color:#ffffff;stop-opacity:1"
         offset="0" />
      <stop
         id="stop5132"
         style="stop-color:#959595;stop-opacity:1"
         offset="1" />
    </linearGradient>
    <linearGradient
       x1="86.132919"
       y1="105.105"
       x2="84.63858"
       y2="20.895"
       id="linearGradient2606"
       xlink:href="#linearGradient5128"
       gradientUnits="userSpaceOnUse"
       gradientTransform="matrix(0.2014014,0,0,0.2014015,18.110304,20.311705)" />
    <linearGradient
       id="linearGradient3484">
      <stop
         id="stop3486"
         style="stop-color:#bdbdbd;stop-opacity:1"
         offset="0" />
      <stop
         id="stop3488"
         style="stop-color:#d0d0d0;stop-opacity:1"
         offset="1" />
    </linearGradient>
    <radialGradient
       cx="3"
       cy="5.01718"
       r="21"
       fx="3"
       fy="5.01718"
       id="radialGradient2455"
       xlink:href="#linearGradient3484"
       gradientUnits="userSpaceOnUse"
       gradientTransform="matrix(-1.274898e-8,1.7142916,-2.159331,-1.4599595e-8,12.809361,2.8570011)" />
    <linearGradient
       id="linearGradient6404">
      <stop
         id="stop6406"
         style="stop-color:#f9f9f9;stop-opacity:1"
         offset="0" />
      <stop
         id="stop6408"
         style="stop-color:#c9c9c9;stop-opacity:1"
         offset="1" />
    </linearGradient>
    <linearGradient
       x1="62.988873"
       y1="13.182598"
       x2="62.988873"
       y2="16.19013"
       id="linearGradient2453"
       xlink:href="#linearGradient6404"
       gradientUnits="userSpaceOnUse"
       gradientTransform="translate(-50.940898,0)" />
    <linearGradient
       id="linearGradient5060-820">
      <stop
         id="stop2681"
         style="stop-color:#000000;stop-opacity:1"
         offset="0" />
      <stop
         id="stop2683"
         style="stop-color:#000000;stop-opacity:0"
         offset="1" />
    </linearGradient>
    <radialGradient
       cx="605.71429"
       cy="486.64789"
       r="117.14286"
       fx="605.71429"
       fy="486.64789"
       id="radialGradient7600-312"
       xlink:href="#linearGradient5060-820"
       gradientUnits="userSpaceOnUse"
       gradientTransform="matrix(-3.212956e-2,0,0,3.705882e-2,23.363215,25.412461)" />
    <linearGradient
       id="linearGradient5060-179">
      <stop
         id="stop2675"
         style="stop-color:#000000;stop-opacity:1"
         offset="0" />
      <stop
         id="stop2677"
         style="stop-color:#000000;stop-opacity:0"
         offset="1" />
    </linearGradient>
    <radialGradient
       cx="605.71429"
       cy="486.64789"
       r="117.14286"
       fx="605.71429"
       fy="486.64789"
       id="radialGradient7598-526"
       xlink:href="#linearGradient5060-179"
       gradientUnits="userSpaceOnUse"
       gradientTransform="matrix(3.212956e-2,0,0,3.705882e-2,24.636785,25.412461)" />
    <linearGradient
       id="linearGradient5048-585">
      <stop
         id="stop2667"
         style="stop-color:#000000;stop-opacity:0"
         offset="0" />
      <stop
         id="stop2669"
         style="stop-color:#000000;stop-opacity:1"
         offset="0.5" />
      <stop
         id="stop2671"
         style="stop-color:#000000;stop-opacity:0"
         offset="1" />
    </linearGradient>
    <linearGradient
       x1="302.85715"
       y1="366.64789"
       x2="302.85715"
       y2="609.50507"
       id="linearGradient7596-975"
       xlink:href="#linearGradient5048-585"
       gradientUnits="userSpaceOnUse"
       gradientTransform="matrix(8.284024e-2,0,0,3.705882e-2,-5.9408285,25.412461)" />
    <linearGradient
       id="linearGradient3390-178-986-453">
      <stop
         id="stop3624"
         style="stop-color:#bb2b12;stop-opacity:1"
         offset="0" />
      <stop
         id="stop3626"
         style="stop-color:#cd7233;stop-opacity:1"
         offset="1" />
    </linearGradient>
    <linearGradient
       x1="82.453476"
       y1="45.114193"
       x2="65.340263"
       y2="15.943953"
       id="linearGradient2446"
       xlink:href="#linearGradient3390-178-986-453"
       gradientUnits="userSpaceOnUse"
       gradientTransform="translate(-53.765393,-0.1141929)" />
    <linearGradient
       id="linearGradient7012-661-145-733-759-865-745-661-970-94">
      <stop
         id="stop3618"
         style="stop-color:#f0c178;stop-opacity:1"
         offset="0" />
      <stop
         id="stop3270"
         style="stop-color:#e18941;stop-opacity:1"
         offset="0.5" />
      <stop
         id="stop3620"
         style="stop-color:#ec4f18;stop-opacity:1"
         offset="1" />
    </linearGradient>
    <radialGradient
       cx="63.969177"
       cy="14.113381"
       r="23.097054"
       fx="63.969177"
       fy="14.113381"
       id="radialGradient2444"
       xlink:href="#linearGradient7012-661-145-733-759-865-745-661-970-94"
       gradientUnits="userSpaceOnUse"
       gradientTransform="matrix(1.5646925,-9.5143002e-8,6.1772287e-8,1.015888,-86.212573,8.1461173)" />
    <linearGradient
       id="linearGradient6129-963-697-142-998-580-273">
      <stop
         id="stop2661"
         style="stop-color:#0a0a0a;stop-opacity:0.498"
         offset="0" />
      <stop
         id="stop2663"
         style="stop-color:#0a0a0a;stop-opacity:0"
         offset="1" />
    </linearGradient>
    <linearGradient
       x1="22.934725"
       y1="49.629246"
       x2="22.809399"
       y2="36.657963"
       id="linearGradient2441"
       xlink:href="#linearGradient6129-963-697-142-998-580-273"
       gradientUnits="userSpaceOnUse"
       gradientTransform="matrix(1.1446925,0,0,0.9977536,-3.4661413,1.0988425)" />
    <linearGradient
       id="linearGradient6087-437-184-795-110-662-495">
      <stop
         id="stop2693"
         style="stop-color:#ffffff;stop-opacity:0.40000001"
         offset="0" />
      <stop
         id="stop2695"
         style="stop-color:#ffffff;stop-opacity:0"
         offset="1" />
    </linearGradient>
    <radialGradient
       cx="7.2646537"
       cy="8.3021259"
       r="20.979567"
       fx="7.2646537"
       fy="8.3021259"
       id="radialGradient2438"
       xlink:href="#linearGradient6087-437-184-795-110-662-495"
       gradientUnits="userSpaceOnUse"
       gradientTransform="matrix(0,1.2079744,-1.6271642,0,26.371748,8.2664685)" />
    <linearGradient
       id="linearGradient8265-821-176-38-919-66-249">
      <stop
         id="stop2687"
         style="stop-color:#ffffff;stop-opacity:0.27450982"
         offset="0" />
      <stop
         id="stop2689"
         style="stop-color:#ffffff;stop-opacity:0.07843138"
         offset="1" />
    </linearGradient>
    <linearGradient
       x1="11.566265"
       y1="22.292103"
       x2="15.214532"
       y2="33.95525"
       id="linearGradient2435"
       xlink:href="#linearGradient8265-821-176-38-919-66-249"
       gradientUnits="userSpaceOnUse" />
  </defs>
  <g
     id="layer1">
    <path
       d="M 3.5062498,8.4999995 C 2.8159788,8.5076695 2.505808,8.8421456 2.505808,9.4999995 C 2.505808,15.014454 2.532086,19.239576 2.499998,24.25043 C 3.9354686,24.25043 45.499996,20.550698 45.499996,18.958166 L 45.499996,12.506647 C 45.499996,11.848794 44.945792,11.498976 44.255517,11.506647 L 23.999998,11.506647 C 21.952515,11.506647 20.501107,8.4999995 18.999998,8.4999995 L 3.5062477,8.4999995 L 3.5062498,8.4999995 z"
       id="path3468"
       style="fill:url(#linearGradient2453);fill-opacity:1;stroke:url(#radialGradient2455);stroke-width:1.00000012;stroke-linecap:round;stroke-linejoin:round;stroke-miterlimit:4;stroke-dasharray:none;stroke-opacity:1;display:inline" />
    <g
       transform="matrix(0.9583333,0,0,0.6666667,1.0000008,15)"
       id="g7591"
       style="opacity:0.4">
      <rect
         width="40"
         height="9"
         x="4"
         y="39"
         id="rect4173"
         style="fill:url(#linearGradient7596-975);fill-opacity:1;fill-rule:nonzero;stroke:none;stroke-width:1;marker:none;visibility:visible;display:inline;overflow:visible" />
      <path
         d="M 44,39.00031 C 44,39.00031 44,47.999814 44,47.999814 C 45.654593,48.016754 48.000001,45.983481 48,43.499483 C 48,41.015484 46.153598,39.00031 44,39.00031 z"
         id="path5058"
         style="fill:url(#radialGradient7598-526);fill-opacity:1;fill-rule:nonzero;stroke:none;stroke-width:1;marker:none;visibility:visible;display:inline;overflow:visible" />
      <path
         d="M 4,39.00031 C 4,39.00031 4,47.999814 4,47.999814 C 2.3454068,48.016755 0,45.983481 0,43.499483 C 0,41.015484 1.8464008,39.00031 4,39.00031 z"
         id="path5018"
         style="fill:url(#radialGradient7600-312);fill-opacity:1;fill-rule:nonzero;stroke:none;stroke-width:1;marker:none;visibility:visible;display:inline;overflow:visible" />
    </g>
    <path
       d="M 2.1628556,16.525193 C 1.0901486,16.648887 1.6630856,17.927311 1.5775586,18.646205 C 1.9700906,27.116295 2.3664906,35.41566 2.7566056,43.885807 C 3.0984416,44.8515 4.3510406,44.356967 5.1447226,44.479557 C 18.338267,44.479557 31.531812,44.479557 44.725358,44.479557 C 45.814738,44.372906 45.361818,43.071876 45.515058,42.327295 C 45.907598,33.857205 46.303998,25.55784 46.694108,17.087693 C 46.442938,16.133404 45.174598,16.663679 44.430985,16.525193 C 30.341611,16.525193 16.252234,16.525193 2.1628556,16.525193 L 2.1628556,16.525193 z"
       id="path3388"
       style="fill:url(#radialGradient2444);fill-opacity:1;stroke:url(#linearGradient2446);stroke-width:1;stroke-linecap:round;stroke-linejoin:round;stroke-miterlimit:4;stroke-dashoffset:0;stroke-opacity:1" />
    <path
       d="M 2.0582428,16.065146 L 45.954718,16.065549 C 46.588878,16.065549 46.999873,16.51016 46.999873,17.062916 L 45.755637,44.002247 C 45.755637,44.555002 45.245105,45 44.610947,45 L 3.4020122,45 C 2.7678523,45 2.2573195,44.555002 2.2573195,44.002247 L 1.0130886,17.0629 C 1.0130886,16.510143 1.4240829,16.065146 2.0582428,16.065146 L 2.0582428,16.065146 z"
       id="path6127"
       style="opacity:0.4;fill:url(#linearGradient2441);fill-opacity:1;stroke:none" />
    <path
       d="M 46.5,17.5 C 32.96875,17.5 16.03125,17.5 2.5,17.5 C 2.8854167,25.677083 3.2708333,33.854167 3.65625,42.03125"
       id="path2435"
       style="fill:none;stroke:url(#radialGradient2438);stroke-width:0.99999976;stroke-linecap:round;stroke-linejoin:round;stroke-miterlimit:4;stroke-dasharray:none;stroke-opacity:1" />
    <path
       d="M 45.75,16 C 31.20041,16.073348 16.645416,15.978851 2.09375,16 C 0.28698984,16.411117 1.2593433,18.46661 1.1213236,19.771525 C 1.3433531,23.934872 1.4443903,28.116464 1.7417851,32.268407 C 16.742298,29.905609 31.66833,27.661153 46.40625,25.21875 C 47.187241,22.632172 47.193628,19.548156 47.063607,16.789526 C 46.834471,16.284964 46.276599,15.988682 45.75,16 z"
       id="path3455"
       style="fill:url(#linearGradient2435);fill-opacity:1;stroke:none" />
    <rect
       width="13"
       height="2"
       rx="1"
       ry="1"
       x="5"
       y="10"
       id="rect3562"
       style="fill:#eda374;fill-opacity:1;fill-rule:nonzero;stroke:none;stroke-width:1;marker:none;visibility:visible;display:block;overflow:visible;enable-background:accumulate" />
  </g>
  <path
     d="M 28.875,19.5 C 28.126261,19.5 27.5,20.095012 27.5,20.84375 L 27.5,22.59375 C 27.026598,22.752626 26.567249,22.937156 26.125,23.15625 L 24.90625,21.9375 C 24.376811,21.408062 23.529438,21.408062 23,21.9375 L 19.9375,24.96875 C 19.408061,25.498188 19.408064,26.345563 19.9375,26.875 L 21.15625,28.09375 C 20.931923,28.543682 20.755618,29.017682 20.59375,29.5 L 18.875,29.5 C 18.126261,29.5 17.499998,30.095012 17.5,30.84375 L 17.5,35.15625 C 17.499999,35.904988 18.126264,36.500002 18.875,36.5 L 20.59375,36.5 C 20.755618,36.982318 20.931923,37.456318 21.15625,37.90625 L 19.9375,39.125 C 19.408061,39.654438 19.40806,40.501812 19.9375,41.03125 L 23,44.0625 C 23.529437,44.591938 24.376813,44.591936 24.90625,44.0625 L 26.125,42.84375 C 26.567249,43.062844 27.026598,43.247374 27.5,43.40625 L 27.5,45.15625 C 27.499999,45.904988 28.126266,46.500002 28.875,46.5 L 33.15625,46.5 C 33.904989,46.5 34.5,45.904986 34.5,45.15625 L 34.5,43.40625 C 34.982318,43.244382 35.456318,43.068077 35.90625,42.84375 L 37.125,44.0625 C 37.654439,44.591938 38.501811,44.591938 39.03125,44.0625 L 42.09375,41.03125 C 42.623189,40.501812 42.623184,39.654436 42.09375,39.125 L 40.84375,37.875 C 41.062844,37.432751 41.247374,36.973402 41.40625,36.5 L 43.15625,36.5 C 43.904989,36.5 44.5,35.904986 44.5,35.15625 L 44.5,30.84375 C 44.500001,30.095012 43.904984,29.5 43.15625,29.5 L 41.40625,29.5 C 41.247374,29.026598 41.062844,28.567249 40.84375,28.125 L 42.09375,26.875 C 42.623189,26.345562 42.623188,25.498188 42.09375,24.96875 L 39.03125,21.9375 C 38.501813,21.408062 37.654436,21.408062 37.125,21.9375 L 35.90625,23.15625 C 35.456318,22.931923 34.982318,22.755618 34.5,22.59375 L 34.5,20.84375 C 34.500001,20.095012 33.904984,19.5 33.15625,19.5 L 28.875,19.5 z M 31,29.5 C 32.932,29.5 34.5,31.068 34.5,33 C 34.5,34.932 32.932,36.5 31,36.5 C 29.067999,36.5 27.5,34.932 27.5,33 C 27.499999,31.068 29.068,29.5 31,29.5 z"
     id="rect2576"
     style="fill:url(#linearGradient3413);fill-opacity:1;fill-rule:nonzero;stroke:url(#linearGradient3415);stroke-width:1;stroke-linecap:butt;stroke-linejoin:round;marker:none;marker-start:none;marker-mid:none;marker-end:none;stroke-miterlimit:4;stroke-dasharray:none;stroke-dashoffset:0;stroke-opacity:1;visibility:visible;display:block;overflow:visible;enable-background:accumulate" />
  <path
     d="M 31,25 C 26.588727,25 23.000002,28.588727 23.000002,33 C 23.000002,37.411274 26.588727,41 31,41 C 35.411273,41 39,37.411274 39,33 C 39,28.588727 35.411273,25 31,25 z M 31,28.692309 C 33.377844,28.692309 35.307693,30.622155 35.307693,33 C 35.307693,35.377847 33.377844,37.307693 31,37.307693 C 28.622154,37.307693 26.692309,35.377847 26.692309,33 C 26.692309,30.622155 28.622154,28.692309 31,28.692309 z"
     id="path3315"
     style="opacity:0.05;fill:#000000;fill-opacity:1;stroke:none;stroke-width:0.99956679;stroke-miterlimit:4;stroke-dasharray:none" />
  <path
     d="M 31,24.620691 C 26.379647,24.620691 22.620692,28.379648 22.620692,32.999999 C 22.620692,37.620351 26.379647,41.379309 31,41.379309 C 35.620353,41.379309 39.37931,37.620351 39.37931,32.999999 C 39.37931,28.379648 35.620353,24.620691 31,24.620691 z"
     id="path28"
     style="fill:none;stroke:url(#linearGradient2606);stroke-width:1;stroke-miterlimit:4;stroke-dasharray:none" />
</svg>

<?xml version="1.0" encoding="UTF-8" standalone="no"?>
<!-- Created with Inkscape (http://www.inkscape.org/) -->
<svg id="svg3396" xmlns="http://www.w3.org/2000/svg" height="48" width="48" version="1.0" xmlns:xlink="http://www.w3.org/1999/xlink">
 <defs id="defs3398">
  <linearGradient id="linearGradient3415" y2="47.045" gradientUnits="userSpaceOnUse" x2="25.923" y1="19" x1="25.923">
   <stop id="stop3399" style="stop-color:#a0a0a0" offset="0"/>
   <stop id="stop3401" style="stop-color:#787878" offset="1"/>
  </linearGradient>
  <linearGradient id="linearGradient3413" y2="47.012" gradientUnits="userSpaceOnUse" x2="32.036" y1="19" x1="32.036">
   <stop id="stop3311" style="stop-color:#f6f6f6" offset="0"/>
   <stop id="stop3313" style="stop-color:#d2d2d2" offset="1"/>
  </linearGradient>
  <linearGradient id="linearGradient2606" y2="20.895" gradientUnits="userSpaceOnUse" x2="84.639" gradientTransform="matrix(.20140 0 0 .20140 18.11 20.312)" y1="105.1" x1="86.133">
   <stop id="stop5130" style="stop-color:#fff" offset="0"/>
   <stop id="stop5132" style="stop-color:#959595" offset="1"/>
  </linearGradient>
  <radialGradient id="radialGradient2455" gradientUnits="userSpaceOnUse" cy="5.0172" cx="3" gradientTransform="matrix(-1.2749e-8 1.7143 -2.1593 -1.46e-8 12.809 2.857)" r="21">
   <stop id="stop3486" style="stop-color:#bdbdbd" offset="0"/>
   <stop id="stop3488" style="stop-color:#d0d0d0" offset="1"/>
  </radialGradient>
  <linearGradient id="linearGradient2453" y2="16.19" gradientUnits="userSpaceOnUse" x2="62.989" gradientTransform="translate(-50.941)" y1="13.183" x1="62.989">
   <stop id="stop6406" style="stop-color:#f9f9f9" offset="0"/>
   <stop id="stop6408" style="stop-color:#c9c9c9" offset="1"/>
  </linearGradient>
  <radialGradient id="radialGradient7600-312" gradientUnits="userSpaceOnUse" cy="486.65" cx="605.71" gradientTransform="matrix(-.032130 0 0 .037059 23.363 25.412)" r="117.14">
   <stop id="stop2681" offset="0"/>
   <stop id="stop2683" style="stop-opacity:0" offset="1"/>
  </radialGradient>
  <radialGradient id="radialGradient7598-526" gradientUnits="userSpaceOnUse" cy="486.65" cx="605.71" gradientTransform="matrix(.032130 0 0 .037059 24.637 25.412)" r="117.14">
   <stop id="stop2675" offset="0"/>
   <stop id="stop2677" style="stop-opacity:0" offset="1"/>
  </radialGradient>
  <linearGradient id="linearGradient7596-975" y2="609.51" gradientUnits="userSpaceOnUse" x2="302.86" gradientTransform="matrix(.082840 0 0 .037059 -5.9408 25.412)" y1="366.65" x1="302.86">
   <stop id="stop2667" style="stop-opacity:0" offset="0"/>
   <stop id="stop2669" offset=".5"/>
   <stop id="stop2671" style="stop-opacity:0" offset="1"/>
  </linearGradient>
  <linearGradient id="linearGradient2446" y2="15.944" gradientUnits="userSpaceOnUse" x2="65.34" gradientTransform="translate(-53.765 -.11419)" y1="45.114" x1="82.453">
   <stop id="stop3624" style="stop-color:#bb2b12" offset="0"/>
   <stop id="stop3626" style="stop-color:#cd7233" offset="1"/>
  </linearGradient>
  <radialGradient id="radialGradient2444" gradientUnits="userSpaceOnUse" cy="14.113" cx="63.969" gradientTransform="matrix(1.5647 -9.5143e-8 6.1772e-8 1.0159 -86.213 8.1461)" r="23.097">
   <stop id="stop3618" style="stop-color:#f0c178" offset="0"/>
   <stop id="stop3270" style="stop-color:#e18941" offset=".5"/>
   <stop id="stop3620" style="stop-color:#ec4f18" offset="1"/>
  </radialGradient>
  <linearGradient id="linearGradient2441" y2="36.658" gradientUnits="userSpaceOnUse" x2="22.809" gradientTransform="matrix(1.1447 0 0 .99775 -3.4661 1.0988)" y1="49.629" x1="22.935">
   <stop id="stop2661" style="stop-color:#0a0a0a;stop-opacity:.498" offset="0"/>
   <stop id="stop2663" style="stop-color:#0a0a0a;stop-opacity:0" offset="1"/>
  </linearGradient>
  <radialGradient id="radialGradient2438" gradientUnits="userSpaceOnUse" cy="8.3021" cx="7.2647" gradientTransform="matrix(0 1.208 -1.6272 0 26.372 8.2665)" r="20.98">
   <stop id="stop2693" style="stop-color:#fff;stop-opacity:0.4" offset="0"/>
   <stop id="stop2695" style="stop-color:#fff;stop-opacity:0" offset="1"/>
  </radialGradient>
  <linearGradient id="linearGradient2435" y2="33.955" gradientUnits="userSpaceOnUse" x2="15.215" y1="22.292" x1="11.566">
   <stop id="stop2687" style="stop-color:#fff;stop-opacity:.27451" offset="0"/>
   <stop id="stop2689" style="stop-color:#fff;stop-opacity:.078431" offset="1"/>
  </linearGradient>
 </defs>
 <g id="layer1">
  <path id="path3468" style="stroke-linejoin:round;stroke:url(#radialGradient2455);stroke-linecap:round;fill:url(#linearGradient2453)" d="m3.5062 8.5c-0.6902 0.0077-1.0004 0.3421-1.0004 1 0 5.514 0.0263 9.74-0.0058 14.75 1.4355 0 43-3.699 43-5.292v-6.451c0-0.658-0.554-1.008-1.244-1h-20.256c-2.047 0-3.499-3.007-5-3.007h-15.494 0.0002z"/>
  <g id="g7591" style="opacity:.4" transform="matrix(.95833 0 0 .66667 1 15)">
   <rect id="rect4173" style="fill:url(#linearGradient7596-975)" height="9" width="40" y="39" x="4"/>
   <path id="path5058" style="fill:url(#radialGradient7598-526)" d="m44 39v9c1.655 0.017 4-2.017 4-4.501s-1.846-4.499-4-4.499z"/>
   <path id="path5018" style="fill:url(#radialGradient7600-312)" d="m4 39v9c-1.6546 0.017-4-2.017-4-4.501s1.8464-4.499 4-4.499z"/>
  </g>
  <path id="path3388" style="stroke-linejoin:round;stroke:url(#linearGradient2446);stroke-linecap:round;fill:url(#radialGradient2444)" d="m2.1629 16.525c-1.0728 0.124-0.4998 1.402-0.5853 2.121 0.3925 8.47 0.7889 16.77 1.179 25.24 0.3418 0.966 1.5944 0.471 2.3881 0.594h39.58c1.09-0.107 0.637-1.408 0.79-2.153 0.393-8.47 0.789-16.769 1.179-25.239-0.251-0.955-1.519-0.424-2.263-0.563h-42.268-0.0001z"/>
  <path id="path6127" style="opacity:.4;fill:url(#linearGradient2441)" d="m2.0582 16.065l43.897 0.001c0.634 0 1.045 0.444 1.045 0.997l-1.244 26.939c0 0.553-0.511 0.998-1.145 0.998h-41.209c-0.6341 0-1.1447-0.445-1.1447-0.998l-1.2442-26.939c0-0.553 0.411-0.998 1.0451-0.998z"/>
  <path id="path2435" style="stroke-linejoin:round;stroke:url(#radialGradient2438);stroke-linecap:round;fill:none" d="m46.5 17.5h-44l1.1562 24.531"/>
  <path id="path3455" style="fill:url(#linearGradient2435)" d="m45.75 16c-14.55 0.073-29.105-0.021-43.656 0-1.807 0.411-0.8347 2.467-0.9727 3.772 0.2221 4.163 0.3231 8.344 0.6205 12.496 15-2.362 29.926-4.607 44.664-7.049 0.781-2.587 0.788-5.671 0.658-8.429-0.23-0.505-0.787-0.801-1.314-0.79z"/>
  <rect id="rect3562" style="display:block;fill:#eda374" rx="1" ry="1" height="2" width="13" y="10" x="5"/>
 </g>
 <path id="rect2576" style="stroke-linejoin:round;stroke:url(#linearGradient3415);display:block;fill:url(#linearGradient3413)" d="m28.875 19.5c-0.749 0-1.375 0.595-1.375 1.344v1.75c-0.473 0.159-0.933 0.343-1.375 0.562l-1.219-1.218c-0.529-0.53-1.377-0.53-1.906 0l-3.062 3.031c-0.53 0.529-0.53 1.377 0 1.906l1.218 1.219c-0.224 0.45-0.4 0.924-0.562 1.406h-1.719c-0.749 0-1.375 0.595-1.375 1.344v4.312c0 0.749 0.626 1.344 1.375 1.344h1.719c0.162 0.482 0.338 0.956 0.562 1.406l-1.218 1.219c-0.53 0.529-0.53 1.377 0 1.906l3.062 3.031c0.529 0.53 1.377 0.53 1.906 0l1.219-1.218c0.442 0.219 0.902 0.403 1.375 0.562v1.75c0 0.749 0.626 1.344 1.375 1.344h4.281c0.749 0 1.344-0.595 1.344-1.344v-1.75c0.482-0.162 0.956-0.338 1.406-0.562l1.219 1.218c0.529 0.53 1.377 0.53 1.906 0l3.063-3.031c0.529-0.529 0.529-1.377 0-1.906l-1.25-1.25c0.219-0.442 0.403-0.902 0.562-1.375h1.75c0.749 0 1.344-0.595 1.344-1.344v-4.312c0-0.749-0.595-1.344-1.344-1.344h-1.75c-0.159-0.473-0.343-0.933-0.562-1.375l1.25-1.25c0.529-0.529 0.529-1.377 0-1.906l-3.063-3.031c-0.529-0.53-1.377-0.53-1.906 0l-1.219 1.218c-0.45-0.224-0.924-0.4-1.406-0.562v-1.75c0-0.749-0.595-1.344-1.344-1.344h-4.281zm2.125 10c1.932 0 3.5 1.568 3.5 3.5s-1.568 3.5-3.5 3.5-3.5-1.568-3.5-3.5 1.568-3.5 3.5-3.5z"/>
 <path id="path3315" style="opacity:.05" d="m31 25c-4.411 0-8 3.589-8 8s3.589 8 8 8 8-3.589 8-8-3.589-8-8-8zm0 3.692c2.378 0 4.308 1.93 4.308 4.308s-1.93 4.308-4.308 4.308-4.308-1.93-4.308-4.308 1.93-4.308 4.308-4.308z"/>
 <path id="path28" style="stroke:url(#linearGradient2606);fill:none" d="m31 24.621c-4.62 0-8.379 3.759-8.379 8.379s3.759 8.379 8.379 8.379 8.379-3.759 8.379-8.379-3.759-8.379-8.379-8.379z"/>
</svg>
